X:3630
T:Miss Wharton Duff
C:William Marshall
M:4/4
O:Scotland
Z:Richard Robinson 
%%TUNEURL: http://www.leeds.ac.uk/music/Info/RRTuneBk/gettune/0000093c.html
%%ID:0000093c
K:Bb
B, |\
B2 c2 d/f/d/B/ A/c/A/F/ \
|1 Eg Df Ce/c/ d/B/A/F/ :|2\
Eg Bb d/B/c/A/ B ::\
f/g//a// |
bf e/d/c/B/ b/f/e/d/ e/d/c/B/ |\
eg Gc e/c/d/B/ B/A/G/F/ | \
Eg Df Ce/c/ d/B/A/G/ |\
b/f/d/B/ e/c/d/B/ F/B/A/c/ B4 |]
